src/assets/icons/theme-light.svg

<svg widh="100%" height="100%" viewBox="0 0 24 24" fill="current"
  xmlns="http://www.w3.org/2000/svg">
  <path fill-rule="evenodd" clip-rule="evenodd" d="M12 8C9.79086 8 8 9.79086 8 12C8 14.2091 9.79086 16 12 16C14.2091 16 16 14.2091 16 12C16 9.79086 14.2091 8 12 8ZM6 12C6 8.68629 8.68629 6 12 6C15.3137 6 18 8.68629 18 12C18 15.3137 15.3137 18 12 18C8.68629 18 6 15.3137 6 12Z" />
  <path fill-rule="evenodd" clip-rule="evenodd" d="M12 0C12.5523 0 13 0.447715 13 1V3C13 3.55228 12.5523 4 12 4C11.4477 4 11 3.55228 11 3V1C11 0.447715 11.4477 0 12 0Z" />
  <path fill-rule="evenodd" clip-rule="evenodd" d="M12 20C12.5523 20 13 20.4477 13 21V23C13 23.5523 12.5523 24 12 24C11.4477 24 11 23.5523 11 23V21C11 20.4477 11.4477 20 12 20Z" />
  <path fill-rule="evenodd" clip-rule="evenodd" d="M3.51289 3.51286C3.90342 3.12234 4.53658 3.12234 4.92711 3.51286L6.34711 4.93286C6.73763 5.32339 6.73763 5.95655 6.34711 6.34708C5.95658 6.7376 5.32342 6.7376 4.93289 6.34708L3.51289 4.92708C3.12237 4.53655 3.12237 3.90339 3.51289 3.51286Z" />
  <path fill-rule="evenodd" clip-rule="evenodd" d="M17.6529 17.6529C18.0434 17.2624 18.6766 17.2624 19.0671 17.6529L20.4871 19.0729C20.8776 19.4634 20.8776 20.0966 20.4871 20.4871C20.0966 20.8776 19.4634 20.8776 19.0729 20.4871L17.6529 19.0671C17.2624 18.6766 17.2624 18.0434 17.6529 17.6529Z" />
  <path fill-rule="evenodd" clip-rule="evenodd" d="M0 12C0 11.4477 0.447715 11 1 11H3C3.55228 11 4 11.4477 4 12C4 12.5523 3.55228 13 3 13H1C0.447715 13 0 12.5523 0 12Z" />
  <path fill-rule="evenodd" clip-rule="evenodd" d="M20 12C20 11.4477 20.4477 11 21 11H23C23.5523 11 24 11.4477 24 12C24 12.5523 23.5523 13 23 13H21C20.4477 13 20 12.5523 20 12Z" />
  <path fill-rule="evenodd" clip-rule="evenodd" d="M6.34711 17.6529C6.73763 18.0434 6.73763 18.6766 6.34711 19.0671L4.92711 20.4871C4.53658 20.8776 3.90342 20.8776 3.51289 20.4871C3.12237 20.0966 3.12237 19.4634 3.51289 19.0729L4.93289 17.6529C5.32342 17.2624 5.95658 17.2624 6.34711 17.6529Z" />
  <path fill-rule="evenodd" clip-rule="evenodd" d="M20.4871 3.51286C20.8776 3.90339 20.8776 4.53655 20.4871 4.92708L19.0671 6.34708C18.6766 6.7376 18.0434 6.7376 17.6529 6.34708C17.2624 5.95655 17.2624 5.32339 17.6529 4.93286L19.0729 3.51286C19.4634 3.12234 20.0966 3.12234 20.4871 3.51286Z" />
</svg>

<svg xmlns="http://www.w3.org/2000/svg" fill="currentColor" viewBox="0 0 24 24">
  <path fill-rule="evenodd" d="M12 8a4 4 0 1 0 0 8 4 4 0 0 0 0-8Zm-6 4a6 6 0 1 1 12 0 6 6 0 0 1-12 0ZM12 0a1 1 0 0 1 1 1v2a1 1 0 1 1-2 0V1a1 1 0 0 1 1-1ZM12 20a1 1 0 0 1 1 1v2a1 1 0 1 1-2 0v-2a1 1 0 0 1 1-1ZM3.513 3.513a1 1 0 0 1 1.414 0l1.42 1.42a1 1 0 0 1-1.414 1.414l-1.42-1.42a1 1 0 0 1 0-1.414ZM17.653 17.653a1 1 0 0 1 1.414 0l1.42 1.42a1 1 0 0 1-1.414 1.414l-1.42-1.42a1 1 0 0 1 0-1.414ZM0 12a1 1 0 0 1 1-1h2a1 1 0 1 1 0 2H1a1 1 0 0 1-1-1ZM20 12a1 1 0 0 1 1-1h2a1 1 0 1 1 0 2h-2a1 1 0 0 1-1-1ZM6.347 17.653a1 1 0 0 1 0 1.414l-1.42 1.42a1 1 0 0 1-1.414-1.414l1.42-1.42a1 1 0 0 1 1.414 0ZM20.487 3.513a1 1 0 0 1 0 1.414l-1.42 1.42a1 1 0 1 1-1.414-1.414l1.42-1.42a1 1 0 0 1 1.414 0Z" clip-rule="evenodd"/>
</svg>
